epam-assets/icon-sources/18/content-link_off.svg

<svg width="18" height="18" viewBox="0 0 18 18" fill="none" xmlns="http://www.w3.org/2000/svg">
<g id="18/content-link_off">
<g id="icon">
<path d="M6.93092 6.78131C6.93088 6.78137 6.93095 6.78124 6.93092 6.78131L2.55 2.40039L1.5 3.45039L6.53029 8.48068C6.53298 9.43685 6.89909 10.3922 7.62862 11.1217L8.39998 10.3504L9.99114 11.9415L8.68962 13.243C7.81094 14.1217 6.38632 14.1217 5.50764 13.243C4.66217 12.3976 4.63022 11.0466 5.41179 10.163C5.17266 9.55498 5.09846 8.89713 5.18918 8.2582L4.44698 9.00041C2.98252 10.4649 2.98252 12.8392 4.44698 14.3037C5.91145 15.7682 8.28582 15.7682 9.75028 14.3037L11.0518 13.0022L15.3 17.2504L16.35 16.2004L12.0919 11.9423C12.0919 11.9424 12.092 11.9423 12.0919 11.9423L11.0247 10.8748C11.0247 10.8749 11.0248 10.8748 11.0247 10.8748L8.09256 7.94295C8.09254 7.94303 8.09258 7.94287 8.09256 7.94295L6.93092 6.78131Z" fill="#6C6F80"/>
<path d="M8.90914 6.65923L7.84848 5.59857L9.74994 3.6971C11.2144 2.23263 13.5888 2.23263 15.0532 3.6971C16.5177 5.16157 16.5177 7.53594 15.0532 9.0004L14.258 9.79564C14.3486 9.15792 14.2748 8.50135 14.0368 7.89433C14.871 7.01264 14.8563 5.62146 13.9926 4.75776C13.1139 3.87908 11.6893 3.87908 10.8106 4.75776L8.90914 6.65923Z" fill="#6C6F80"/>
<path d="M11.4449 9.195L12.8229 10.573C13.1889 9.30376 12.8717 7.87923 11.8716 6.87908C11.69 6.69746 11.4944 6.53837 11.2882 6.4018L10.1901 7.49995C10.4146 7.60719 10.625 7.75379 10.8109 7.93974C11.1646 8.29344 11.376 8.7356 11.4449 9.195Z" fill="#6C6F80"/>
</g>
</g>
</svg>

<svg xmlns="http://www.w3.org/2000/svg" width="18" height="18" fill="none" viewBox="0 0 18 18">
  <path fill="#6C6F80" d="M6.93 6.781s.001 0 0 0l-4.38-4.38L1.5 3.45l5.03 5.03a3.738 3.738 0 0 0 1.099 2.64l.771-.77 1.591 1.59-1.301 1.302a2.25 2.25 0 0 1-3.278-3.08 3.763 3.763 0 0 1-.223-1.905L4.447 9a3.75 3.75 0 0 0 5.303 5.304l1.302-1.302L15.3 17.25l1.05-1.05-4.258-4.258-1.067-1.067-2.932-2.932L6.93 6.78Zm1.98-.121L7.847 5.598 9.75 3.697A3.75 3.75 0 1 1 15.053 9l-.795.796a3.763 3.763 0 0 0-.221-1.902 2.25 2.25 0 0 0-3.226-3.136L8.909 6.659Z"/>
  <path fill="#6C6F80" d="m11.445 9.195 1.378 1.378a3.749 3.749 0 0 0-1.535-4.171L10.19 7.5c.225.107.435.254.62.44.355.353.566.796.635 1.255Z"/>
</svg>
